X:1
T:Title
%%score { 1 | ( 2 3 ) }
L:1/8
M:2/4
K:Bb
V:1 treble nm="Grand Piano"
V:2 bass 
V:3 bass 
V:1
 z4 | z2 z[Q:1/4=90] [DF] | [DF][DF] [EG][EA] | [Dc][DB] [DF][FB] | AA GA | [DB]3 [DF] | %6
 [DF][DF] [EG][EA] | [Dc][DB] [B,DF][DFG] | [DFA][DFA] [_D=EA][EGA] | [DFA]3 [FA] | %10
 [EA][EA] G[FA] | [FB]c d[Fd] | [=Ed][Ec] [Ec]G | c3 d | ed c=B | dc AG | FF GA | [B,DB]4 | %18
 [Fd]2 [Fd]>[Fd] | [Ec][DB] [DF]2 | [DF][DF] [DG][F,B,D] | [DF]2 [A,CE]2 | [Ac][Ac] [_A=B][=Ac] | %23
 [Bd][Ac] [FA]2 | [FB]2 c2 | d4 | [Fd]2 [Fd]>[Fd] | [Ec][DB] [DF]2 | dd ed | [Fd]2 [Ec]2 | %30
 [=EB][EB] [EA][EB] | [Ff][Fd] B2 | d2 c2 |[M:3/8] [DB]3 |] %34
V:2
 z4 | z2 z [B,,B,] | [B,,B,][B,,B,] [B,,B,][B,,B,] | [B,,F,][B,,F,] [B,,B,][D,B,] | %4
 [F,CE][F,CE] [F,CE][F,E] | [B,,F,]3 [B,,B,] | [B,,B,][B,,B,] [B,,B,][B,,B,] | %7
 [B,,F,][B,,F,] B,,B,, | A,,A,, A,,A,, | D,3 [D,F,] | [C,F,][C,F,] [F,E][E,F,] | %11
 [D,B,][K:treble][F,A,F] [B,F][K:bass][B,,B,] | [C,B,][C,B,] [C,B,][=E,B,] | [F,A,F]3 [F,B,F] | %14
 [F,CF][F,B,F] [F,A,F][F,_A,F] | [F,B,F][F,A,E] [F,CE][F,B,E] | [F,A,E][F,A,E] [F,B,E][F,CE] | %17
 z/[K:treble] F/=E/F/ G/A/B/c/ | [B,,B,]2 [B,,B,]>[B,,B,] | [B,,F,][B,,F,] [B,,B,]2 | %20
 [B,,B,][B,,B,] [B,,B,]B,, | F,2 F,2 | F,F, F,F, | z2 F,2 | [D,F,]2[K:treble] [F,A,F]2 | [B,F]4 | %26
 [B,,B,]2 [B,,B,]>[B,,B,] | [B,,F,][B,,F,] [B,,B,]2 | [G,=B,F][G,B,F] [G,B,F][G,B,F] | %29
 [C,C]2 [C,G,]2 | [_D,G,][D,G,] [D,G,][D,G,] | [D,B,][D,B,] [G,C=E]2 | [F,B,F]2 [F,A,E]2 | %33
[M:3/8] [B,,B,]3 |] %34
V:3
 x4 | x4 | x4 | x4 | x4 | x4 | x4 | x4 | x4 | x4 | x4 | x[K:treble] x2[K:bass] x | x4 | x4 | x4 | %15
 x4 | x4 | B,,4[K:treble] | x4 | x4 | x4 | x4 | x4 | F,F, z E, | x2[K:treble] x2 | x4 | x4 | x4 | %28
 x4 | x4 | x4 | x4 | x4 |[M:3/8] x3 |] %34

